X:1
T:Faith (Rossini), 10.10.10.10
T:Faith (Rossini), 10.10.10.10
T:Arranged from Gioachino Rossini (1792-1868)
T:Public Domain Courtesy of the Cyber Hymnal™
C:Arranged from Gioachino Rossini (1792-1868)
Z:Public Domain
Z:Courtesy of the Cyber Hymnal™
%%score ( 1 2 ) 3
L:1/8
Q:1/4=110
M:4/4
K:Ab
V:1 treble 
V:2 treble 
V:3 bass 
V:1
 [Ac]4 [Ad]2 [Ac]2 | [Gc]3 [GB] [GB]4 | [FA]4 [FB]2 [FA]2 | [=EG]8 | F4 [=EG]2 F2 | %5
 [CA]3 [CB] [Cc]4 | [=Dc]4 [DF]2 [DB]2 | [EB]8 | [EB]4 [EA]2 [EG]2 | [EA]2 [FA]2 [EA]4 | %10
 [=Ec]4 [Ed]2 [Ec]2 | [Fc]8 | [Fd]4 [FA]2 [FB]2 | [Ec]3 [EB] [EA]4 | %14
"^rall." [CA]4!>(! C2 [DF]2!>)! | [CE]8 |] %16
V:2
 x8 | x8 | x8 | x8 | F4 F2 x2 | x8 | x8 | x8 | x8 | x8 | x8 | x8 | x8 | x8 | x4 C2 x2 | x8 |] %16
V:3
 [A,E]4 [A,F]2 [A,E]2 | [E,E]3 [E,D] [E,D]4 | [F,C]4 [F,D]2 [F,C]2 | [C,B,]8 | %4
 [D,A,]4 [D,B,]2 [D,A,]2 | [F,A,]3 [F,G,] [F,A,]4 | [B,,A,]4 [B,,A,]2 [B,,A,]2 | [E,G,]8 | %8
 [E,D]4 [E,C]2 [E,B,]2 | [A,C]2 [A,D]2 [A,C]4 | [G,B,]4 [G,B,]2 [G,B,]2 | [F,A,]8 | %12
 [D,A,]4 [D,A,]2 [D,A,]2 | [A,,A,]3 [B,,G,] [C,A,]4 | [F,A,]4 [E,A,]2 [D,A,]2 | [A,,A,]8 |] %16

